X: 2
T: Richie Dwyer's Dream
R: reel
M: 4/4
L: 1/8
K: Cmaj
|:edcA dcAE|ABce dGBd|ea a2 bc'ba|gedc BG G2|
edcB dcBA|cBAG EDEG|AGcA dced|cAAE A4:|
|:agec Bdgd|(3cBA eA aAeA|agec d2 eg|ac'bc' a2 (3c'a^g|
agec dG (3eed|cABG AGED|AGcA dced|cAAE A4:|

composer: Richard Dwyer
